findly-builder/apps/searchassist/src/assets/icons/next-icon-carousel.svg

<svg width="11" height="19" viewBox="0 0 11 19" fill="none" xmlns="http://www.w3.org/2000/svg">
<path fill-rule="evenodd" clip-rule="evenodd" d="M10.6387 9.02734C10.983 9.37162 11.0033 9.91722 10.6995 10.2852L10.6387 10.352L2.43653 18.5542C2.07073 18.92 1.47766 18.92 1.11187 18.5542C0.767586 18.2099 0.747334 17.6643 1.05111 17.2964L1.11187 17.2295L8.65159 9.68967L1.11187 2.14979C0.767586 1.80551 0.747334 1.25991 1.05111 0.891947L1.11187 0.825128C1.45614 0.48085 2.00175 0.460598 2.36971 0.764373L2.43653 0.825128L10.6387 9.02734Z" fill="#9AA0A6"/>
</svg>

<svg width="11" height="19" fill="none" xmlns="http://www.w3.org/2000/svg"><path fill-rule="evenodd" clip-rule="evenodd" d="M10.639 9.027c.344.345.364.89.06 1.258l-.06.067-8.202 8.202a.937.937 0 0 1-1.386-1.258l.06-.066 7.54-7.54-7.54-7.54a.937.937 0 0 1-.06-1.258l.06-.067A.937.937 0 0 1 2.37.765l.067.06 8.202 8.202Z" fill="#9AA0A6"/></svg>
